icons/icn_sincro.svg

<svg width="24" xmlns="http://www.w3.org/2000/svg" height="23.992" id="screenshot-701359cf-58fd-8059-8006-76ef2cc3c79f" viewBox="0 0 24 23.992" xmlns:xlink="http://www.w3.org/1999/xlink" fill="none" version="1.1"><g id="shape-701359cf-58fd-8059-8006-76ef2cc3c79f"><g class="frame-container-wrapper"><g class="frame-container-blur"><g class="frame-container-shadows"><g fill="none"><g class="fills" id="fills-701359cf-58fd-8059-8006-76ef2cc3c79f"><rect rx="0" ry="0" x="0" y="0" width="24" height="23.992269617594275" transform="matrix(1, 0, 0, 1, 0, 0)" class="frame-background"/></g><g class="frame-children"><g id="shape-701359cf-58fd-8059-8006-76ec88ade307" width="24" height="24" version="1.1" rx="0" ry="0" style="fill: rgb(0, 0, 0);"><g id="shape-701359cf-58fd-8059-8006-76ec88b3e9da" style="opacity: 1;"><g class="fills" id="fills-701359cf-58fd-8059-8006-76ec88b3e9da"><path d="M5.260588645935059,2.0793159008026123C3.5093679428100586,2.0793159008026123,2.0791921615600586,3.5169379711151123,2.0791921615600586,5.268158435821533L2.0791921615600586,18.732147216796875C2.0791921615600586,20.482879638671875,3.5093679428100586,21.913543701171875,5.260588645935059,21.913543701171875L18.732755661010742,21.913543701171875C20.482999801635742,21.913543701171875,21.921720504760742,20.482879638671875,21.921720504760742,18.732147216796875L21.921720504760742,5.268158435821533C21.921720504760742,3.5169379711151123,20.482999801635742,2.0793159008026123,18.732755661010742,2.0793159008026123ZM5.260588645935059,3.5483100414276123L18.732755661010742,3.5483100414276123C19.695890426635742,3.5483100414276123,20.452726364135742,4.304535388946533,20.452726364135742,5.268158435821533L20.452726364135742,18.732147216796875C20.452726364135742,19.695404052734375,19.695890426635742,20.451995849609375,18.732755661010742,20.451995849609375L5.260588645935059,20.451995849609375C4.297453880310059,20.451995849609375,3.5406179428100586,19.695404052734375,3.5406179428100586,18.732147216796875L3.5406179428100586,5.268158435821533C3.5406179428100586,4.304535388946533,4.297453880310059,3.5483100414276123,5.260588645935059,3.5483100414276123Z" style="display: inline; stroke-linecap: round; stroke-linejoin: round; fill: rgb(0, 0, 0); fill-opacity: 1;"/></g></g><g id="shape-701359cf-58fd-8059-8006-76ec88b40a66" style="opacity: 1;"><g class="fills" id="fills-701359cf-58fd-8059-8006-76ec88b40a66"><path d="M9.991545677185059,6.935028553009033C9.514494895935059,6.936859607696533,9.128752708435059,7.323456287384033,9.127776145935059,7.800507068634033C9.127043724060059,8.030243873596191,9.217375755310059,8.251801490783691,9.378752708435059,8.415131568908691C9.541350364685059,8.578461647033691,9.761809349060059,8.670624732971191,9.991545677185059,8.671601295471191L14.096770286560059,8.671601295471191L7.179045677185059,15.587128639221191C7.015715599060059,15.749604225158691,6.924407005310059,15.970551490783691,6.924407005310059,16.200286865234375C6.924407005310059,16.430511474609375,7.015715599060059,16.651092529296875,7.179045677185059,16.813812255859375C7.341399192810059,16.976654052734375,7.562102317810059,17.067962646484375,7.792571067810059,17.067962646484375C8.022551536560059,17.067962646484375,8.243010520935059,16.976654052734375,8.405364036560059,16.813812255859375L15.464201927185059,9.755219459533691L15.432951927185059,13.993744850158691C15.430266380310059,14.204071998596191,15.512297630310059,14.406952857971191,15.660735130310059,14.556855201721191C15.809416770935059,14.706391334533691,16.011564254760742,14.790375709533691,16.221769332885742,14.790375709533691C16.656583786010742,14.791718482971191,17.009855270385742,14.441620826721191,17.012540817260742,14.007050514221191L17.055997848510742,7.770966053009033C17.056974411010742,7.524628162384033,16.942472457885742,7.292084217071533,16.746915817260742,7.142181873321533C16.744962692260742,7.140839099884033,16.743253707885742,7.139862537384033,16.741300582885742,7.138519763946533C16.587247848510742,7.009247303009033,16.393400192260742,6.937347888946533,16.192228317260742,6.935516834259033Z" style="display: inline; stroke-linecap: round; stroke-linejoin: round; fill: rgb(0, 0, 0); fill-opacity: 1;"/></g></g></g></g></g></g></g></g></g></svg>

<svg fill="none" viewBox="0 0 24 23.992"><g class="frame-container-wrapper"><g class="frame-container-blur"><g class="frame-container-shadows"><g class="fills"><rect width="24" height="23.9923" class="frame-background" rx="0" ry="0"/></g><g fill="#000" class="frame-children"><path d="M5.2606 2.0793c-1.7512 0-3.1814 1.4376-3.1814 3.1889v13.464c0 1.7507 1.4302 3.1813 3.1814 3.1813h13.4722c1.7502 0 3.189-1.4306 3.189-3.1814V5.2681c0-1.7512-1.4388-3.1888-3.189-3.1888Zm0 1.469h13.4722c.963 0 1.72.7562 1.72 1.7199v13.464c0 .9632-.757 1.7198-1.72 1.7198H5.2606c-.9631 0-1.72-.7566-1.72-1.7199V5.2681c0-.9636.7569-1.7198 1.72-1.7198Z" class="fills"/><path d="M9.9915 6.935a.867.867 0 0 0-.8637.8655.8715.8715 0 0 0 .251.6146.8702.8702 0 0 0 .6127.2565h4.1053L7.179 15.5871a.865.865 0 0 0-.2546.6132c0 .2302.0913.4508.2546.6135a.866.866 0 0 0 .6136.2542.865.865 0 0 0 .6128-.2542l7.0588-7.0586-.0312 4.2385a.7862.7862 0 0 0 .2277.5632.7916.7916 0 0 0 .561.2335.7879.7879 0 0 0 .7908-.7833l.0435-6.2361a.7885.7885 0 0 0-.309-.6288l-.0057-.0037a.8662.8662 0 0 0-.549-.203Z" class="fills"/></g></g></g></g></svg>
